X:1
T: Bab at the Bowster
P:for: We'll Hide the Cooper behind the Door
R:Jig
Q:180
K:G
M:6/8
L:1/16
|:AB|c4c2 B2c2B2|A4G2 F4D2|G2A2G2 B2A2B2|G2A2G2 B2A2B2|
c4c2 B2c2B2|A2B2A2 f2e2f2|g2f2e2 d2e2c2|B6 G4:|
|:B2|c3def g2d2B2|A2B2G2 F4D2|G4d2 B2d2B2|G4d2 B4B2|
c3def g2d2B2|A2B2A2 f4ef|g2f2e2 d2e2c2|B6 G4:|
